X:1 
T:Drmmaren/The drummer
B:Jacob Mestmachers notbok
D:non Egeland mfl. - For borgere og bnder 
Z:Transcribed to abcby Jon Magnusson 080208
O:Bergen, Norge
R:Engelska
M:2/4 
L:1/8 
K:Gm 
D|:GABG|D2 D=E|F2 FG|AB cA|GABG|D2 ce|dc BA|[1 GG GD:|[2 GG GA|]
|:B2 Bd|c2 cd|B2 Bd|cA FA|B2 Bd|c2 ce|dc BA|[1 GG GA:|[2 GG G2|]
